src/icons/file.icon.svg

<svg width="24px" height="24px" viewBox="0 0 24 24" version="1.1" xmlns="http://www.w3.org/2000/svg" xmlns:xlink="http://www.w3.org/1999/xlink">
    <!-- Generator: Sketch 49.2 (51160) - http://www.bohemiancoding.com/sketch -->
    <title>IconFile</title>
    <desc>Created with Sketch.</desc>
    <defs></defs>
    <g id="Page-1" stroke="none" stroke-width="1" fill="none" fill-rule="evenodd">
        <g id="IconFile">
            <path d="M15.6363636,7.31818182 L15.6363636,17.25 C15.6363636,19.1586364 14.0090909,20.7045455 12,20.7045455 C9.99090909,20.7045455 8.36363636,19.1586364 8.36363636,17.25 L8.36363636,6.45454545 C8.36363636,5.26272727 9.38181818,4.29545455 10.6363636,4.29545455 C11.8909091,4.29545455 12.9090909,5.26272727 12.9090909,6.45454545 L12.9090909,15.5227273 C12.9090909,15.9977273 12.5,16.3863636 12,16.3863636 C11.5,16.3863636 11.0909091,15.9977273 11.0909091,15.5227273 L11.0909091,7.31818182 L9.72727273,7.31818182 L9.72727273,15.5227273 C9.72727273,16.7145455 10.7454545,17.6818182 12,17.6818182 C13.2545455,17.6818182 14.2727273,16.7145455 14.2727273,15.5227273 L14.2727273,6.45454545 C14.2727273,4.54590909 12.6454545,3 10.6363636,3 C8.62727273,3 7,4.54590909 7,6.45454545 L7,17.25 C7,19.8754545 9.23636364,22 12,22 C14.7636364,22 17,19.8754545 17,17.25 L17,7.31818182 L15.6363636,7.31818182 Z" id="Shape" fill="currentColor" fill-rule="nonzero"></path>
        </g>
    </g>
</svg>

<svg xmlns="http://www.w3.org/2000/svg" viewBox="0 0 24 24"><path d="M15.636 7.318v9.932c0 1.909-1.627 3.455-3.636 3.455-2.01 0-3.636-1.546-3.636-3.455V6.455c0-1.192 1.018-2.16 2.272-2.16 1.255 0 2.273.968 2.273 2.16v9.068c0 .475-.409.863-.909.863s-.91-.388-.91-.863V7.318H9.728v8.205c0 1.192 1.018 2.159 2.273 2.159 1.255 0 2.273-.967 2.273-2.16V6.456c0-1.91-1.628-3.455-3.637-3.455C8.627 3 7 4.546 7 6.455V17.25C7 19.875 9.236 22 12 22s5-2.125 5-4.75V7.318h-1.364z" fill="currentColor" fill-rule="nonzero"/></svg>
